theme/essential/pix_core/e/manage_files.svg

<!DOCTYPE svg PUBLIC "-//W3C//DTD SVG 1.1//EN" "http://www.w3.org/Graphics/SVG/1.1/DTD/svg11.dtd" [
	<!ENTITY ns_flows "http://ns.adobe.com/Flows/1.0/">
]><svg xmlns="http://www.w3.org/2000/svg" width="16" height="16" viewBox="-1 0 16 16" preserveAspectRatio="xMinYMid meet" overflow="visible" enable-background="new -1 0 16 16"><path d="M13.7 6.1c-.2-.4-.4-.7-.6-1l-2.2-2.2c-.2-.2-.6-.4-1-.6-.4-.2-.8-.3-1.1-.3h-1.8c0-1.1-.9-2-2-2s-2 .9-2 2h-1.8c-.3 0-.6.1-.8.4s-.4.5-.4.8v11.5c0 .3.1.6.4.9.2.3.5.4.8.4h11.5c.3 0 .6-.1.9-.4.2-.2.4-.5.4-.9v-7.5c0-.3-.1-.7-.3-1.1zm-3.7-2.7c.1.1.1.1.2.2l2.2 2.2c0 .1.1.1.2.2h-2.6v-2.6zm-5-2.4c.5 0 1 .4 1 1h-2c0-.6.5-1 1-1zm8 13.7c0 .2-.1.3-.2.3h-11.6c-.1 0-.2-.1-.2-.3v-11.5c0-.1.1-.2.2-.2h1.8v4c0 1.1.9 2 2 2s2-.9 2-2v-2.2h-1v2.2c0 .6-.4 1-1 1s-1-.5-1-1v-4h4.8s.1 0 .2 0v4h4c0 .1 0 .2 0 .2v7.5z" fill="#999"/></svg>

<?xml version="1.0" encoding="utf-8"?>
<!-- Generator: Adobe Illustrator 15.1.0, SVG Export Plug-In  -->
<!DOCTYPE svg PUBLIC "-//W3C//DTD SVG 1.1//EN" "http://www.w3.org/Graphics/SVG/1.1/DTD/svg11.dtd" [
	<!ENTITY ns_flows "http://ns.adobe.com/Flows/1.0/">
]>
<svg version="1.1"
	 xmlns="http://www.w3.org/2000/svg" xmlns:xlink="http://www.w3.org/1999/xlink" xmlns:a="http://ns.adobe.com/AdobeSVGViewerExtensions/3.0/"
	 x="0px" y="0px" width="16px" height="16px" viewBox="-1 0 16 16" style="overflow:visible;enable-background:new -1 0 16 16;"
	 xml:space="preserve" preserveAspectRatio="xMinYMid meet">
<defs>
</defs>
<path style="fill:#29a1c4;" d="M13.7,6.1c-0.2-0.4-0.4-0.7-0.6-1l-2.2-2.2c-0.2-0.2-0.6-0.4-1-0.6C9.5,2.1,9.1,2,8.8,2H7
	c0-1.1-0.9-2-2-2S3,0.9,3,2H1.2C0.9,2,0.6,2.1,0.4,2.4S0,2.9,0,3.2v11.5c0,0.3,0.1,0.6,0.4,0.9C0.6,15.9,0.9,16,1.2,16h11.5
	c0.3,0,0.6-0.1,0.9-0.4c0.2-0.2,0.4-0.5,0.4-0.9V7.2C14,6.9,13.9,6.5,13.7,6.1z M10,3.4c0.1,0.1,0.1,0.1,0.2,0.2l2.2,2.2
	c0,0.1,0.1,0.1,0.2,0.2H10V3.4z M5,1c0.5,0,1,0.4,1,1H4C4,1.4,4.5,1,5,1z M13,14.7c0,0.2-0.1,0.3-0.2,0.3H1.2C1.1,15,1,14.9,1,14.7
	V3.2C1,3.1,1.1,3,1.2,3H3v4c0,1.1,0.9,2,2,2s2-0.9,2-2V4.8H6V7c0,0.6-0.4,1-1,1S4,7.5,4,7V3h4.8C8.8,3,8.9,3,9,3v4h4
	c0,0.1,0,0.2,0,0.2V14.7z"/>
</svg>
